svgs/thin/scribble.svg

<svg xmlns="http://www.w3.org/2000/svg" viewBox="0 0 512 512"><!--! Font Awesome Pro 6.3.0 by @fontawesome - https://fontawesome.com License - https://fontawesome.com/license (Commercial License) Copyright 2023 Fonticons, Inc. --><path d="M210 17.49C222.1 6.247 238 0 254.6 0H255.4C291.1 0 320 28.91 320 64.57C320 81.69 313.2 98.12 301.1 110.2L62.22 349.1C53.12 358.2 47.1 370.6 47.1 383.4C47.1 410.3 69.74 432 96.57 432C109.4 432 121.8 426.9 130.9 417.8L401.8 146.9C413.9 134.8 430.3 128 447.4 128C483.1 128 512 156.9 512 192.6C512 209.7 505.2 226.1 493.1 238.2L356.9 374.5C343.5 387.8 336 405.9 336 424.8V427.4C336 465.3 366.7 496 404.6 496C415.8 496 426.9 492.9 436.5 487.2L499.9 449.1C503.7 446.9 508.6 448.1 510.9 451.9C513.1 455.7 511.9 460.6 508.1 462.9L444.8 500.9C432.6 508.2 418.7 512 404.6 512C357.9 512 320 474.1 320 427.4V424.8C320 401.7 329.2 379.5 345.5 363.1L481.8 226.9C490.9 217.8 496 205.4 496 192.6C496 165.7 474.3 144 447.4 144C434.6 144 422.2 149.1 413.1 158.2L142.2 429.1C130.1 441.2 113.7 448 96.57 448C60.91 448 32 419.1 32 383.4C32 366.3 38.8 349.9 50.91 337.8L289.8 98.91C298.9 89.8 304 77.45 304 64.57C304 37.74 282.3 16 255.4 16H254.6C242.1 16 230.1 20.72 220.9 29.21L13.44 221.9C10.21 224.9 5.144 224.7 2.138 221.4C-.8688 218.2-.6813 213.1 2.556 210.1L210 17.49z"/></svg>

<svg xmlns="http://www.w3.org/2000/svg" viewBox="0 0 512 512"><!--! Font Awesome Pro 6.4.0 by @fontawesome - https://fontawesome.com License - https://fontawesome.com/license (Commercial License) Copyright 2023 Fonticons, Inc. --><path d="M210 17.5C222.1 6.2 238 0 254.6 0h.9C291.1 0 320 28.9 320 64.6c0 17.1-6.8 33.5-18.9 45.7L62.2 349.1C53.1 358.2 48 370.6 48 383.4C48 410.3 69.7 432 96.6 432c12.9 0 25.2-5.1 34.3-14.2L401.8 146.9c12.1-12.1 28.5-18.9 45.7-18.9c35.7 0 64.6 28.9 64.6 64.6c0 17.1-6.8 33.5-18.9 45.7L356.9 374.5c-13.4 13.4-20.9 31.5-20.9 50.3v2.6c0 37.9 30.7 68.6 68.6 68.6c11.2 0 22.3-3.1 31.9-8.8l63.4-38c3.8-2.3 8.7-1 11 2.7s1 8.7-2.7 11l-63.4 38c-12.1 7.3-26 11.1-40.2 11.1c-46.7 0-84.6-37.9-84.6-84.6v-2.6c0-23.1 9.2-45.3 25.5-61.7L481.8 226.9c9.1-9.1 14.2-21.5 14.2-34.3c0-26.8-21.7-48.6-48.6-48.6c-12.9 0-25.2 5.1-34.3 14.2L142.2 429.1C130.1 441.2 113.7 448 96.6 448C60.9 448 32 419.1 32 383.4c0-17.1 6.8-33.5 18.9-45.7L289.8 98.9c9.1-9.1 14.2-21.5 14.2-34.3C304 37.7 282.3 16 255.4 16h-.9c-12.5 0-24.5 4.7-33.6 13.2L13.4 221.9c-3.2 3-8.3 2.8-11.3-.4s-2.8-8.3 .4-11.3L210 17.5z"/></svg>
